dist/assets/img/icons/Socials.svg

<svg width="90" height="20" viewBox="0 0 90 20" fill="none" xmlns="http://www.w3.org/2000/svg">
<g id="Socials">
<path id="Github" d="M10 0C4.475 0 0 4.36167 0 9.74107C0 14.0457 2.865 17.6962 6.8375 18.9832C7.3375 19.0749 7.52083 18.7734 7.52083 18.5148C7.52083 18.2835 7.5125 17.6706 7.50833 16.8585C4.72667 17.4459 4.14 15.5517 4.14 15.5517C3.685 14.4274 3.0275 14.1267 3.0275 14.1267C2.12167 13.5228 3.0975 13.5352 3.0975 13.5352C4.10167 13.603 4.62917 14.5389 4.62917 14.5389C5.52083 16.0283 6.97 15.5979 7.54167 15.3493C7.63167 14.719 7.88917 14.2903 8.175 14.0466C5.95417 13.8029 3.62 12.9652 3.62 9.23304C3.62 8.16988 4.0075 7.30085 4.64917 6.61934C4.53667 6.37317 4.19917 5.3827 4.73667 4.04116C4.73667 4.04116 5.57417 3.78012 7.48667 5.03988C8.28667 4.82345 9.13667 4.71606 9.98667 4.7111C10.8367 4.71606 11.6867 4.82345 12.4867 5.03988C14.3867 3.78012 15.2242 4.04116 15.2242 4.04116C15.7617 5.3827 15.4242 6.37317 15.3242 6.61934C15.9617 7.30085 16.3492 8.16988 16.3492 9.23304C16.3492 12.9752 14.0117 13.7987 11.7867 14.0383C12.1367 14.3307 12.4617 14.928 12.4617 15.8408C12.4617 17.1444 12.4492 18.1918 12.4492 18.5082C12.4492 18.7635 12.6242 19.0683 13.1367 18.9708C17.1375 17.692 20 14.0391 20 9.74107C20 4.36167 15.5225 0 10 0Z" fill="#212121"/>
<g id="Instagram">
<g id="Group">
<g id="Group_2">
<path id="Vector" d="M48.7495 0L41.2495 0C37.7983 0 34.9995 2.79875 34.9995 6.25L34.9995 13.75C34.9995 17.2013 37.7983 20 41.2495 20L48.7495 20C52.2008 20 54.9995 17.2013 54.9995 13.75L54.9995 6.25C54.9995 2.79875 52.2008 0 48.7495 0ZM53.1245 13.75C53.1245 16.1625 51.162 18.125 48.7495 18.125L41.2495 18.125C38.837 18.125 36.8745 16.1625 36.8745 13.75L36.8745 6.25C36.8745 3.8375 38.837 1.875 41.2495 1.875L48.7495 1.875C51.162 1.875 53.1245 3.8375 53.1245 6.25L53.1245 13.75Z" fill="black"/>
</g>
</g>
<g id="Group_3">
<g id="Group_4">
<path id="Vector_2" d="M44.9995 5C42.2383 5 39.9995 7.23875 39.9995 10C39.9995 12.7613 42.2383 15 44.9995 15C47.7608 15 49.9995 12.7613 49.9995 10C49.9995 7.23875 47.7608 5 44.9995 5ZM44.9995 13.125C43.277 13.125 41.8745 11.7225 41.8745 10C41.8745 8.27625 43.277 6.875 44.9995 6.875C46.722 6.875 48.1245 8.27625 48.1245 10C48.1245 11.7225 46.722 13.125 44.9995 13.125Z" fill="black"/>
</g>
</g>
<g id="Group_5">
<g id="Group_6">
<path id="Vector_3" d="M50.3745 5.29123C50.7425 5.29123 51.0408 4.99295 51.0408 4.62499C51.0408 4.25703 50.7425 3.95874 50.3745 3.95874C50.0065 3.95874 49.7083 4.25703 49.7083 4.62499C49.7083 4.99295 50.0065 5.29123 50.3745 5.29123Z" fill="black"/>
</g>
</g>
</g>
<path id="Facebook" d="M87.0698 0L72.9292 0C71.3139 0 69.9995 1.31439 69.9995 2.92969L69.9995 17.0703C69.9995 18.6856 71.3139 20 72.9292 20L78.8276 20V12.9297L76.4839 12.9297L76.4839 9.41406L78.8276 9.41406V7.03125C78.8276 5.09262 80.4046 3.51563 82.3433 3.51563L85.8979 3.51563L85.8979 7.03125L82.3433 7.03125V9.41406L85.8979 9.41406L85.312 12.9297L82.3433 12.9297V20L87.0698 20C88.6851 20 89.9995 18.6856 89.9995 17.0703L89.9995 2.92969C89.9995 1.31439 88.6851 0 87.0698 0Z" fill="black"/>
</g>
</svg>

<svg width="90" height="20" fill="none" xmlns="http://www.w3.org/2000/svg"><g id="Socials"><path id="Github" d="M10 0C4.475 0 0 4.362 0 9.741c0 4.305 2.865 7.955 6.838 9.242.5.092.683-.21.683-.468 0-.232-.008-.844-.013-1.657-2.781.588-3.368-1.306-3.368-1.306-.455-1.125-1.112-1.425-1.112-1.425-.906-.604.07-.592.07-.592 1.004.068 1.531 1.004 1.531 1.004.892 1.49 2.341 1.059 2.913.81.09-.63.347-1.059.633-1.302-2.22-.244-4.555-1.082-4.555-4.814 0-1.063.388-1.932 1.03-2.614-.113-.246-.45-1.236.087-2.578 0 0 .837-.26 2.75.999a9.82 9.82 0 012.5-.329c.85.005 1.7.112 2.5.329 1.9-1.26 2.737-.999 2.737-.999.538 1.342.2 2.332.1 2.578a3.719 3.719 0 011.025 2.614c0 3.742-2.337 4.566-4.562 4.805.35.293.675.89.675 1.803 0 1.303-.013 2.35-.013 2.667 0 .256.175.56.688.463 4-1.279 6.863-4.932 6.863-9.23C20 4.361 15.523 0 10 0z" fill="#212121"/><g id="Instagram"><g id="Group"><g id="Group_2"><path id="Vector" d="M48.75 0h-7.5A6.25 6.25 0 0035 6.25v7.5A6.25 6.25 0 0041.25 20h7.5A6.25 6.25 0 0055 13.75v-7.5A6.25 6.25 0 0048.75 0zm4.374 13.75a4.38 4.38 0 01-4.375 4.375h-7.5a4.38 4.38 0 01-4.375-4.375v-7.5a4.38 4.38 0 014.375-4.375h7.5a4.38 4.38 0 014.375 4.375v7.5z" fill="#000"/></g></g><g id="Group_3"><g id="Group_4"><path id="Vector_2" d="M45 5a5 5 0 100 10 5 5 0 000-10zm0 8.125A3.13 3.13 0 0141.873 10 3.129 3.129 0 0145 6.875 3.129 3.129 0 0148.124 10 3.13 3.13 0 0145 13.125z" fill="#000"/></g></g><g id="Group_5"><g id="Group_6"><path id="Vector_3" d="M50.374 5.291a.666.666 0 100-1.332.666.666 0 000 1.332z" fill="#000"/></g></g></g><path id="Facebook" d="M87.07 0H72.93A2.933 2.933 0 0070 2.93v14.14A2.933 2.933 0 0072.93 20h5.898v-7.07h-2.344V9.414h2.344V7.031a3.52 3.52 0 013.515-3.515h3.555V7.03h-3.555v2.383h3.555l-.586 3.516h-2.969V20h4.727A2.933 2.933 0 0090 17.07V2.93A2.933 2.933 0 0087.07 0z" fill="#000"/></g></svg>
